svg/cupboard.svg

<?xml version="1.0" encoding="UTF-8"?><!DOCTYPE svg PUBLIC "-//W3C//DTD SVG 1.1//EN" "http://www.w3.org/Graphics/SVG/1.1/DTD/svg11.dtd"><svg xmlns="http://www.w3.org/2000/svg" xmlns:xlink="http://www.w3.org/1999/xlink" version="1.1" id="mdi-cupboard" width="24" height="24" viewBox="0 0 24 24"><path d="M17 2H7C5.9 2 5 2.9 5 4V19C5 20.11 5.9 21 7 21V22H9V21H15V22H17V21C18.11 21 19 20.11 19 19V4C19 2.9 18.11 2 17 2M10 18H8V15H10V18M16 18H14V15H16V18M17 12H7V9H17V12M17 7H7V4H17V7Z" /></svg>

<svg xmlns="http://www.w3.org/2000/svg" viewBox="0 0 24 24"><path d="M17 2H7c-1.1 0-2 .9-2 2v15a2 2 0 0 0 2 2v1h2v-1h6v1h2v-1c1.11 0 2-.89 2-2V4a2 2 0 0 0-2-2m-7 16H8v-3h2zm6 0h-2v-3h2zm1-6H7V9h10zm0-5H7V4h10z"/></svg>
